icons/lines/empty-wallet-change.svg

<svg xmlns="http://www.w3.org/2000/svg" width="24" height="24" viewBox="0 0 24 24" fill="none" stroke="currentColor" stroke-width="2" stroke-linecap="round" stroke-linejoin="round" >
  <path d="M2.5 13.24V11.51C2.5 9.44001 4.18999 7.75 6.25999 7.75H17.74C19.81 7.75 21.5 9.44001 21.5 11.51V12.95H19.48C18.92 12.95 18.41 13.17 18.04 13.55C17.62 13.96 17.38 14.55 17.44 15.18C17.53 16.26 18.52 17.05 19.6 17.05H21.5V18.24C21.5 20.31 19.81 22 17.74 22H12.26"/>
  <path d="M2.5 12.41V7.84004C2.5 6.65004 3.23 5.59 4.34 5.17L12.28 2.17C13.52 1.7 14.85 2.62003 14.85 3.95003V7.75002"/>
  <path d="M22.5588 13.9702V16.0302C22.5588 16.5802 22.1188 17.0302 21.5588 17.0502H19.5988C18.5188 17.0502 17.5288 16.2602 17.4388 15.1802C17.3788 14.5502 17.6188 13.9602 18.0388 13.5502C18.4088 13.1702 18.9188 12.9502 19.4788 12.9502H21.5588C22.1188 12.9702 22.5588 13.4202 22.5588 13.9702Z"/>
  <path d="M7 12H14"/>
  <path d="M3 16.5H8.34C8.98 16.5 9.5 17.02 9.5 17.66V18.94" stroke-miterlimit="10"/>
  <path d="M4.22 15.28L3 16.5L4.22 17.72" stroke-miterlimit="10"/>
  <path d="M9.5 21.78H4.16C3.52 21.78 3 21.26 3 20.62V19.34" stroke-miterlimit="10"/>
  <path d="M8.28125 23.0003L9.50125 21.7803L8.28125 20.5603" stroke-miterlimit="10"/>
  </svg>

<svg xmlns="http://www.w3.org/2000/svg" width="24" height="24" viewBox="0 0 24 24" fill="none" stroke="currentColor" stroke-width="2" stroke-linecap="round" stroke-linejoin="round">
  <path d="M19.479 12.95a2 2 0 0 0-2.04 2.23c.09 1.08 1.08 1.87 2.16 1.87-1.079 0-2.069-.79-2.159-1.87a2 2 0 0 1 2.04-2.23h2.079a1 1 0 0 1 1 1.02v2.06a1 1 0 0 1-1 1.02h-1.96" />
  <path d="M2.5 11.51a3.77 3.77 0 0 1 3.76-3.76h11.48a3.77 3.77 0 0 1 3.76 3.76v1.44" />
  <path d="M2.5 13.24v-5.4a2.85 2.85 0 0 1 1.84-2.67l7.94-3a2 2 0 0 1 2.57 1.78v3.8" />
  <path d="M21.5 17.05v1.19A3.77 3.77 0 0 1 17.74 22h-5.48" />
  <path d="M3 16.5h5.34a1.16 1.16 0 0 1 1.16 1.16v1.28" />
  <path d="M4.22 15.28 3 16.5l1.22 1.22" />
  <path d="M7 12h7" />
  <path d="m8.281 23 1.22-1.22-1.22-1.22" />
  <path d="M9.5 21.78H4.16A1.16 1.16 0 0 1 3 20.62v-1.28" />
</svg>
